X: 306
T: Beyoğlu`nda Gezersin
C: Rıza Bey
O: Turkey
F: http://compmusic.upf.edu/node/140
N: mahur--turku--sofyan--beyoglunda_gezersin--pirincci_riza_bey
N: makam= mahur
N: form= turku
N: usul= sofyan = 4/4
M: 4/4
L: 1/16
K: C ^9/8f   
Q: 1/4=96
%%MIDI tuningsystem comma53
g3=f e2d2 ^c2_7/8B2 A2G2  | g3=f e2d2 ^cdec d4  | \
w:  ARANAĞME  |   | 
g3=f e2d2 ^c2_7/8B2 A2G2  | 
w:   | 
A2_7/8BA AGGF G8  | g3=f e2d2 ^c2_7/8B2 A2G2  | \
w:   |  ARANAĞME  | 
g3=f e2d2 ^cdec d4  | 
w:   | 
g3=f e2d2 ^c2_7/8B2 A2G2  | A2_7/8BA AGGF G4 d2ef  | \
w:   |   | 
g4 f2g2 g4 g4  | 
w:  *  Be yoğ lun da   | 
f2g2 a2{b}ag g8  | a3g g3f f3e e3d  | \
w:  ge *  zer *  *  *  sin   |  göz *  le *  ri *  ni   | 
f3e e2{f}ed d4 d2ef  | 
w:  sü *  zer *  *  *  sin   SAZ  | 
g4 f2g2 g4 g4  | f2g2 a2{b}ag g8  | a3g g3f f3e e3d  | \
w:  *  Be yoğ lun da   |  ge *  zer *  *  *  sin   |  göz *  le *  ri *  ni   | 
f3e e2{f}ed d4 z4  | 
w:  sü *  zer *  *  *  sin    | 
e3d c2B2 c4 z4  | d3c B2^A2 B2c2 ^c2d2  | \
w:  Sev *  di ce ğim   |  yav *  ru ca ğım   | 
^c2d2 c2d2 c2{e}dc _7/8BAG2  | 
w:  ni çin  ni çin  be *  *  *  ni   | 
A2_7/8BA G3F G2A2 =B2c2  | e3d c2B2 c4 z4  | \
w:  ü *  *  zer *  sin   SAZ  |  Sev *  di ce ğim   | 
d3c B2^A2 B2c2 ^c2d2  | 
w:  yav *  ru ca ğım   | 
^c2d2 c2d2 c2{e}dc _7/8BAG2  | A2_7/8BA G3F G8  | \
w:  ni çin  ni çin  be *  *  *  ni   |  ü *  *  zer *  sin    | 
c14B2  | d8 d3^c B^AB2  | 
w:  Ah   |  ah   | 
^c2d2 c2d2 c2{e}dc _7/8BAG2  | A2_7/8BA AGGF G4 z4  | \
w:  fı kır  fı kır  fı *  kır *  da *  ma   |  gel  *  *  ba *  na  *  gel    | 
c14B2  | 
w:  Ah   | 
d8 d3^c B^AB2  | ^c2d2 c2d2 c2{e}dc _7/8BAG2  | \
w:  ah   |  fı kır  fı kır  fı *  kır *  da *  ma   | 
A2_7/8BA AGGF G4 z4  | 
w:  gel  *  *  ba *  na  *  gel    | 
g3=f e2d2 ^c2_7/8B2 A2G2  | g3=f e2d2 ^cdec d4  | \
w:  ARANAĞME  |   | 
g3=f e2d2 ^c2_7/8B2 A2G2  | 
w:   | 
A2_7/8BA AGGF G8  | g3=f e2d2 ^c2_7/8B2 A2G2  | \
w:   |  ARANAĞME  | 
g3=f e2d2 ^cdec d4  | 
w:   | 
g3=f e2d2 ^c2_7/8B2 A2G2  | A2_7/8BA AGGF G4 d2ef  | \
w:   |   | 
g4 f2g2 g4 g4  | 
w:  *  Be yoğ lun da   | 
f2g2 a2{b}ag g8  | a3g g3f f3e e3d  | \
w:  ge *  zer *  *  *  sin   |  göz *  le *  ri *  ni   | 
f3e e2{f}ed d4 d2ef  | 
w:  sü *  zer *  *  *  sin   SAZ  | 
g4 f2g2 g4 g4  | f2g2 a2{b}ag g8  | a3g g3f f3e e3d  | \
w:  *  Be yoğ lun da   |  ge *  zer *  *  *  sin   |  göz *  le *  ri *  ni   | 
f3e e2{f}ed d4 z4  | 
w:  sü *  zer *  *  *  sin    | 
e3d c2B2 c4 z4  | d3c B2^A2 B2c2 ^c2d2  | \
w:  Sev *  di ce ğim   |  yav *  ru ca ğım   | 
^c2d2 c2d2 c2{e}dc _7/8BAG2  | 
w:  ni çin  ni çin  be *  *  *  ni   | 
A2_7/8BA G3F G2A2 =B2c2  | e3d c2B2 c4 z4  | \
w:  ü *  *  zer *  sin   SAZ  |  Sev *  di ce ğim   | 
d3c B2^A2 B2c2 ^c2d2  | 
w:  yav *  ru ca ğım   | 
^c2d2 c2d2 c2{e}dc _7/8BAG2  | A2_7/8BA G3F G8  | \
w:  ni çin  ni çin  be *  *  *  ni   |  ü *  *  zer *  sin    | 
c14B2  | d8 d3^c B^AB2  | 
w:  Ah   |  ah   | 
^c2d2 c2d2 c2{e}dc _7/8BAG2  | A2_7/8BA AGGF G4 z4  | \
w:  fı kır  fı kır  fı *  kır *  da *  ma   |  gel  *  *  ba *  na  *  gel    | 
c14B2  | 
w:  Ah   | 
d8 d3^c B^AB2  | ^c2d2 c2d2 c2{e}dc _7/8BAG2  | \
w:  ah   |  fı kır  fı kır  fı *  kır *  da *  ma   | 
A2_7/8BA AGGF G4 z4  | 
w:  gel  *  *  ba *  na  *  gel    | 
|


